src/Pure/16/symbolic/actions/format-text-plaintext-symbolic.svg

<?xml version="1.0" encoding="UTF-8" standalone="no"?>
<svg
   height="16px"
   viewBox="0 0 16 16"
   width="16px"
   version="1.1"
   id="svg1"
   sodipodi:docname="format-text-plaintext-symbolic.svg"
   inkscape:version="1.4.2 (ebf0e940d0, 2025-05-08)"
   xmlns:inkscape="http://www.inkscape.org/namespaces/inkscape"
   xmlns:sodipodi="http://sodipodi.sourceforge.net/DTD/sodipodi-0.dtd"
   xmlns="http://www.w3.org/2000/svg"
   xmlns:svg="http://www.w3.org/2000/svg">
  <defs
     id="defs1">
    <style
      id="current-color-scheme"
      type="text/css">
      .ColorScheme-Text { color:#363636; }
    </style>
  </defs>
  <sodipodi:namedview
     id="namedview1"
     pagecolor="#ffffff"
     bordercolor="#000000"
     borderopacity="0.25"
     inkscape:showpageshadow="2"
     inkscape:pageopacity="0.0"
     inkscape:pagecheckerboard="0"
     inkscape:deskcolor="#d1d1d1"
     inkscape:zoom="49.6875"
     inkscape:cx="8"
     inkscape:cy="8"
     inkscape:window-width="1920"
     inkscape:window-height="1010"
     inkscape:window-x="0"
     inkscape:window-y="0"
     inkscape:window-maximized="1"
     inkscape:current-layer="svg1" />
  <path
     id="path1"
     style="fill:currentColor"
     class="ColorScheme-Text"
     d="M 7 1 C 6.589844 1 6.2226565 1.2500003 6.0703125 1.6289062 L 4.0703125 6.6289062 C 4.0234385 6.7460942 4 6.871094 4 7 L 4 14 L 6 14 L 6 11 L 10.003906 11 L 10.007812 14 L 12.007812 14 L 12 7 C 12 6.871094 11.976562 6.7460943 11.925781 6.6289062 L 9.9257812 1.6289062 C 9.7773443 1.2500003 9.410156 1 9 1 L 7 1 z M 7.6757812 3 L 8.3203125 3 L 10 7.1953125 L 10.003906 9 L 6 9 L 6 7.1953125 L 7.6757812 3 z " />
</svg>

<svg height="16px" viewBox="0 0 16 16" width="16px" xmlns="http://www.w3.org/2000/svg">
    <path d="m 7 1 c -0.410156 0 -0.777344 0.25 -0.929688 0.628906 l -2 5 c -0.046874 0.117188 -0.070312 0.242188 -0.070312 0.371094 v 7 h 2 v -3 h 4.003906 l 0.003906 3 h 2 l -0.007812 -7 c 0 -0.128906 -0.023438 -0.253906 -0.074219 -0.371094 l -2 -5 c -0.148437 -0.378906 -0.515625 -0.628906 -0.925781 -0.628906 z m 0.675781 2 h 0.644531 l 1.679688 4.195312 l 0.003906 1.804688 h -4.003906 v -1.804688 z m 0 0" fill="#363636"/>
</svg>
